SVG_Azure_Grouped/Deployment/1ES Hosted Pool.svg

<?xml version="1.0" encoding="UTF-8" standalone="no"?>
<!-- Generated by Microsoft Visio, SVG Export 1ES Hosted Pool.svg Page-1 -->

<svg
   xmlns:dc="http://purl.org/dc/elements/1.1/"
   xmlns:cc="http://creativecommons.org/ns#"
   xmlns:rdf="http://www.w3.org/1999/02/22-rdf-syntax-ns#"
   xmlns:svg="http://www.w3.org/2000/svg"
   xmlns="http://www.w3.org/2000/svg"
   xmlns:sodipodi="http://sodipodi.sourceforge.net/DTD/sodipodi-0.dtd"
   xmlns:inkscape="http://www.inkscape.org/namespaces/inkscape"
   width="0.78735679in"
   height="0.78740394in"
   viewBox="0 0 56.689597 56.693394"
   xml:space="preserve"
   class="st7"
   version="1.1"
   id="svg90"
   sodipodi:docname="1ES Hosted Pool.svg"
   style="font-size:12px;overflow:visible;color-interpolation-filters:sRGB;fill:none;fill-rule:evenodd;stroke-linecap:square;stroke-miterlimit:3"
   inkscape:version="0.92.5 (2060ec1f9f, 2020-04-08)"><metadata
   id="metadata94"><rdf:RDF><cc:Work
       rdf:about=""><dc:format>image/svg+xml</dc:format><dc:type
         rdf:resource="http://purl.org/dc/dcmitype/StillImage" /></cc:Work></rdf:RDF></metadata><sodipodi:namedview
   pagecolor="#ffffff"
   bordercolor="#666666"
   borderopacity="1"
   objecttolerance="10"
   gridtolerance="10"
   guidetolerance="10"
   inkscape:pageopacity="0"
   inkscape:pageshadow="2"
   inkscape:window-width="640"
   inkscape:window-height="480"
   id="namedview92"
   showgrid="false"
   inkscape:zoom="1.4193119"
   inkscape:cx="37.795128"
   inkscape:cy="37.786193"
   inkscape:window-x="0"
   inkscape:window-y="0"
   inkscape:window-maximized="0"
   inkscape:current-layer="svg90" />
	<style
   type="text/css"
   id="style2">
	<![CDATA[
		.st1 {fill:#0078d4;stroke:none;stroke-linecap:butt;stroke-width:34}
		.st2 {fill:#50e6ff;stroke:none;stroke-linecap:butt;stroke-width:34}
		.st3 {fill:#c3f1ff;stroke:none;stroke-linecap:butt;stroke-width:34}
		.st4 {fill:#9cebff;stroke:none;stroke-linecap:butt;stroke-width:34}
		.st5 {fill:url(#grad0-16);stroke:none;stroke-linecap:butt;stroke-width:34}
		.st6 {fill:url(#grad0-30);stroke:none;stroke-linecap:butt;stroke-width:34}
		.st7 {fill:none;fill-rule:evenodd;font-size:12px;overflow:visible;stroke-linecap:square;stroke-miterlimit:3}
	]]>
	</style>

	<defs
   id="Patterns_And_Gradients">
		<linearGradient
   id="grad0-16"
   x1="0"
   y1="128.50633"
   x2="23.977252"
   y2="128.50633"
   gradientTransform="scale(1.2227053,0.81785853)"
   gradientUnits="userSpaceOnUse">
			<stop
   offset="0"
   stop-color="#0078d4"
   stop-opacity="1"
   id="stop4" />
			<stop
   offset="0.82"
   stop-color="#5ea0ef"
   stop-opacity="1"
   id="stop6" />
		</linearGradient>
		<linearGradient
   id="grad0-30"
   x1="0"
   y1="163.06935"
   x2="10.538117"
   y2="163.06935"
   gradientTransform="scale(1.3920894,0.71834469)"
   gradientUnits="userSpaceOnUse">
			<stop
   offset="0.15"
   stop-color="#cccccc"
   stop-opacity="1"
   id="stop9" />
			<stop
   offset="1"
   stop-color="#707070"
   stop-opacity="1"
   id="stop11" />
		</linearGradient>
	</defs>
	<g
   id="g88"
   transform="translate(-34.000441,-34.000905)">
		<title
   id="title15">Page-1</title>
		<g
   id="group17504-1"
   transform="translate(34,-34.0157)">
			<title
   id="title17">1ES Hosted Pool.17504</title>
			<g
   id="group17505-2">
				<title
   id="title19">Sheet.17505</title>
				<g
   id="shape17506-3">
					<title
   id="title21">Sheet.17506</title>
					<path
   d="m 5.4,68.02 h 6.57 v 1.9 H 5.4 Z m 48.39,1.9 h 1.07 v 1.03 h 1.83 v -2.93 h -2.9 z M 3.03,122.67 H 2.1 v -1.06 H 0 v 3.1 h 3.03 z m 51.83,-0.96 v 0.96 h -1.07 v 2.04 h 2.9 v -3 z M 2.1,70.88 v -0.96 h 0.93 v -1.9 H 0 v 2.86 z"
   class="st1"
   id="path23"
   inkscape:connector-curvature="0"
   style="fill:#0078d4;stroke:none;stroke-width:34;stroke-linecap:butt" />
				</g>
				<g
   id="shape17507-5"
   transform="translate(9.5711,-26.9125)">
					<title
   id="title26">Sheet.17507</title>
					<path
   d="m 0,123.74 a 0.967137,0.967137 -180 0 0 0.967114,0.96711 L 28.35,124.71 a 0.967137,0.967137 -180 0 0 0.967114,-0.96711 L 29.31,106.07 a 0.967137,0.967137 -180 0 0 -0.967114,-0.96711 L 0.97,105.1 a 0.967137,0.967137 -180 0 0 -0.967114,0.96711 z"
   class="st1"
   id="path28"
   inkscape:connector-curvature="0"
   style="fill:#0078d4;stroke:none;stroke-width:34;stroke-linecap:butt" />
				</g>
				<g
   id="shape17508-7"
   transform="translate(24.2446,-30.981)">
					<title
   id="title31">Sheet.17508</title>
					<path
   d="m 4.87,116.14 v 5.7 L 0,124.71 v -5.74 z"
   class="st2"
   id="path33"
   inkscape:connector-curvature="0"
   style="fill:#50e6ff;stroke:none;stroke-width:34;stroke-linecap:butt" />
				</g>
				<g
   id="shape17509-9"
   transform="translate(19.3423,-36.6836)">
					<title
   id="title36">Sheet.17509</title>
					<path
   d="M 9.77,121.84 4.9,124.71 0,121.84 4.9,118.97 Z"
   class="st3"
   id="path38"
   inkscape:connector-curvature="0"
   style="fill:#c3f1ff;stroke:none;stroke-width:34;stroke-linecap:butt" />
				</g>
				<g
   id="shape17510-11"
   transform="translate(19.3423,-30.981)">
					<title
   id="title41">Sheet.17510</title>
					<path
   d="m 4.9,119.01 v 5.7 L 0,121.84 v -5.7 z"
   class="st4"
   id="path43"
   inkscape:connector-curvature="0"
   style="fill:#9cebff;stroke:none;stroke-width:34;stroke-linecap:butt" />
				</g>
				<g
   id="shape17511-13"
   transform="translate(18.0417,-15.9741)">
					<title
   id="title46">Sheet.17511</title>
					<path
   d="m 0,123.74 a 0.967137,0.967137 -180 0 0 0.967114,0.96711 L 28.35,124.71 a 0.967137,0.967137 -180 0 0 0.967114,-0.96711 L 29.31,106.07 a 0.967137,0.967137 -180 0 0 -0.967114,-0.96711 L 0.97,105.1 a 0.967137,0.967137 -180 0 0 -0.967114,0.96711 z"
   class="st5"
   id="path48"
   inkscape:connector-curvature="0"
   style="fill:url(#grad0-16);stroke:none;stroke-width:34;stroke-linecap:butt" />
				</g>
				<g
   id="shape17512-17"
   transform="translate(32.7151,-20.076)">
					<title
   id="title51">Sheet.17512</title>
					<path
   d="m 4.87,116.14 v 5.7 L 0,124.71 v -5.7 z"
   class="st2"
   id="path53"
   inkscape:connector-curvature="0"
   style="fill:#50e6ff;stroke:none;stroke-width:34;stroke-linecap:butt" />
				</g>
				<g
   id="shape17513-19"
   transform="translate(27.8129,-25.7786)">
					<title
   id="title56">Sheet.17513</title>
					<path
   d="M 9.77,121.84 4.9,124.71 0,121.84 4.9,118.97 Z"
   class="st3"
   id="path58"
   inkscape:connector-curvature="0"
   style="fill:#c3f1ff;stroke:none;stroke-width:34;stroke-linecap:butt" />
				</g>
				<g
   id="shape17514-21"
   transform="translate(27.8129,-20.076)">
					<title
   id="title61">Sheet.17514</title>
					<path
   d="m 4.9,119.01 v 5.7 L 0,121.84 v -5.7 z"
   class="st4"
   id="path63"
   inkscape:connector-curvature="0"
   style="fill:#9cebff;stroke:none;stroke-width:34;stroke-linecap:butt" />
				</g>
				<g
   id="shape17515-23"
   transform="translate(27.8129,-20.076)">
					<title
   id="title66">Sheet.17515</title>
					<path
   d="m 0,121.84 4.9,-2.83 v 5.7 z"
   class="st3"
   id="path68"
   inkscape:connector-curvature="0"
   style="fill:#c3f1ff;stroke:none;stroke-width:34;stroke-linecap:butt" />
				</g>
				<g
   id="shape17516-25"
   transform="translate(32.7151,-20.076)">
					<title
   id="title71">Sheet.17516</title>
					<path
   d="M 4.87,121.84 0,119.01 v 5.7 z"
   class="st4"
   id="path73"
   inkscape:connector-curvature="0"
   style="fill:#9cebff;stroke:none;stroke-width:34;stroke-linecap:butt" />
				</g>
				<g
   id="shape17517-27"
   transform="translate(25.3784,-8.43724)">
					<title
   id="title76">Sheet.17517</title>
					<path
   d="M 13.21,123.07 C 10.3,122.61 10.2,120.51 10.2,117.14 H 4.44 c 0,3.33 0,5.47 -3.01,5.93 A 1.70079,1.70079 -180 0 0 0,124.71 h 14.67 a 1.70079,1.70079 -180 0 0 -1.46,-1.64 z"
   class="st6"
   id="path78"
   inkscape:connector-curvature="0"
   style="fill:url(#grad0-30);stroke:none;stroke-width:34;stroke-linecap:butt" />
				</g>
				<g
   id="shape17518-31"
   transform="translate(0,-0.133395)">
					<title
   id="title81">Sheet.17518</title>
					<path
   d="m 15.24,68.15 h 6.57 v 1.9 h -6.57 z m 9.8,0 h 6.57 v 1.9 h -6.57 z m 9.84,0 h 6.57 v 1.9 h -6.57 z m 9.84,0 h 6.57 v 1.9 H 44.72 Z M 5.47,122.81 h 6.57 v 1.9 H 5.47 Z m 9.8,0 h 6.57 v 1.9 h -6.57 z m 9.84,0 h 6.57 v 1.9 h -6.57 z m 9.84,0 h 6.57 v 1.9 h -6.57 z m 9.8,0 h 6.57 v 1.9 H 44.75 Z M 54.79,73.32 h 1.9 v 6.57 h -1.9 z m 0,9.8 h 1.9 v 6.57 h -1.9 z m 0,9.84 h 1.9 v 6.57 h -1.9 z m 0,9.81 h 1.9 v 6.56 h -1.9 z m 0,9.83 h 1.9 v 6.57 h -1.9 z M 0,73.25 h 1.9 v 6.57 H 0 Z m 0,9.84 h 1.9 v 6.57 H 0 Z m 0,9.8 h 1.9 v 6.57 H 0 Z m 0,9.84 h 1.9 v 6.57 H 0 Z m 0,9.81 h 1.9 v 6.57 H 0 Z"
   class="st1"
   id="path83"
   inkscape:connector-curvature="0"
   style="fill:#0078d4;stroke:none;stroke-width:34;stroke-linecap:butt" />
				</g>
			</g>
		</g>
	</g>
</svg>

<?xml version="1.0" encoding="UTF-8" standalone="no"?>
<!DOCTYPE svg PUBLIC "-//W3C//DTD SVG 1.1//EN" "http://www.w3.org/Graphics/SVG/1.1/DTD/svg11.dtd">
<!-- Generated by Microsoft Visio, SVG Export 1ES Hosted Pool.svg Page-1 -->
<svg xmlns="http://www.w3.org/2000/svg" xmlns:xlink="http://www.w3.org/1999/xlink" xmlns:ev="http://www.w3.org/2001/xml-events"
		width="1.73185in" height="1.73206in" viewBox="0 0 124.693 124.709" xml:space="preserve" color-interpolation-filters="sRGB"
		class="st7">
	<style type="text/css">
	<![CDATA[
		.st1 {fill:#0078d4;stroke:none;stroke-linecap:butt;stroke-width:34}
		.st2 {fill:#50e6ff;stroke:none;stroke-linecap:butt;stroke-width:34}
		.st3 {fill:#c3f1ff;stroke:none;stroke-linecap:butt;stroke-width:34}
		.st4 {fill:#9cebff;stroke:none;stroke-linecap:butt;stroke-width:34}
		.st5 {fill:url(#grad0-16);stroke:none;stroke-linecap:butt;stroke-width:34}
		.st6 {fill:url(#grad0-30);stroke:none;stroke-linecap:butt;stroke-width:34}
		.st7 {fill:none;fill-rule:evenodd;font-size:12px;overflow:visible;stroke-linecap:square;stroke-miterlimit:3}
	]]>
	</style>

	<defs id="Patterns_And_Gradients">
		<linearGradient id="grad0-16" x1="0" y1="0" x2="1" y2="0" gradientTransform="rotate(-90 0.5 0.5)">
			<stop offset="0" stop-color="#0078d4" stop-opacity="1"/>
			<stop offset="0.82" stop-color="#5ea0ef" stop-opacity="1"/>
		</linearGradient>
		<linearGradient id="grad0-30" x1="0" y1="0" x2="1" y2="0" gradientTransform="rotate(-90 0.5 0.5)">
			<stop offset="0.15" stop-color="#cccccc" stop-opacity="1"/>
			<stop offset="1" stop-color="#707070" stop-opacity="1"/>
		</linearGradient>
	</defs>
	<g>
		<title>Page-1</title>
		<g id="group17107-1" transform="translate(34,-34.0157)">
			<title>1ES Hosted Pool.17107</title>
			<g id="group17108-2">
				<title>Sheet.17108</title>
				<g id="shape17109-3">
					<title>Sheet.17109</title>
					<path d="M5.4 68.02 L11.97 68.02 L11.97 69.92 L5.4 69.92 L5.4 68.02 ZM53.79 69.92 L54.86 69.92 L54.86 70.95 L56.69
								 70.95 L56.69 68.02 L53.79 68.02 L53.79 69.92 ZM3.03 122.67 L2.1 122.67 L2.1 121.61 L0 121.61 L0
								 124.71 L3.03 124.71 L3.03 122.67 ZM54.86 121.71 L54.86 122.67 L53.79 122.67 L53.79 124.71 L56.69
								 124.71 L56.69 121.71 L54.86 121.71 ZM2.1 70.88 L2.1 69.92 L3.03 69.92 L3.03 68.02 L0 68.02 L0 70.88
								 L2.1 70.88 Z" class="st1"/>
				</g>
				<g id="shape17110-5" transform="translate(9.5711,-26.9125)">
					<title>Sheet.17110</title>
					<path d="M-0 123.74 a0.967137 0.967137 -180 0 0 0.967114 0.967114 L28.35 124.71 a0.967137 0.967137 -180 0 0 0.967114
								 -0.967114 L29.31 106.07 a0.967137 0.967137 -180 0 0 -0.967114 -0.967114 L0.97 105.1 a0.967137 0.967137
								 -180 0 0 -0.967114 0.967114 L0 123.74 Z" class="st1"/>
				</g>
				<g id="shape17111-7" transform="translate(24.2446,-30.981)">
					<title>Sheet.17111</title>
					<path d="M4.87 116.14 L4.87 121.84 L0 124.71 L0 118.97 L4.87 116.14 Z" class="st2"/>
				</g>
				<g id="shape17112-9" transform="translate(19.3423,-36.6836)">
					<title>Sheet.17112</title>
					<path d="M9.77 121.84 L4.9 124.71 L0 121.84 L4.9 118.97 L9.77 121.84 Z" class="st3"/>
				</g>
				<g id="shape17113-11" transform="translate(19.3423,-30.981)">
					<title>Sheet.17113</title>
					<path d="M4.9 119.01 L4.9 124.71 L0 121.84 L0 116.14 L4.9 119.01 Z" class="st4"/>
				</g>
				<g id="shape17114-13" transform="translate(18.0417,-15.9741)">
					<title>Sheet.17114</title>
					<path d="M-0 123.74 a0.967137 0.967137 -180 0 0 0.967114 0.967114 L28.35 124.71 a0.967137 0.967137 -180 0 0 0.967114
								 -0.967114 L29.31 106.07 a0.967137 0.967137 -180 0 0 -0.967114 -0.967114 L0.97 105.1 a0.967137 0.967137
								 -180 0 0 -0.967114 0.967114 L0 123.74 Z" class="st5"/>
				</g>
				<g id="shape17115-17" transform="translate(32.7151,-20.076)">
					<title>Sheet.17115</title>
					<path d="M4.87 116.14 L4.87 121.84 L0 124.71 L0 119.01 L4.87 116.14 Z" class="st2"/>
				</g>
				<g id="shape17116-19" transform="translate(27.8129,-25.7786)">
					<title>Sheet.17116</title>
					<path d="M9.77 121.84 L4.9 124.71 L0 121.84 L4.9 118.97 L9.77 121.84 Z" class="st3"/>
				</g>
				<g id="shape17117-21" transform="translate(27.8129,-20.076)">
					<title>Sheet.17117</title>
					<path d="M4.9 119.01 L4.9 124.71 L0 121.84 L0 116.14 L4.9 119.01 Z" class="st4"/>
				</g>
				<g id="shape17118-23" transform="translate(27.8129,-20.076)">
					<title>Sheet.17118</title>
					<path d="M0 121.84 L4.9 119.01 L4.9 124.71 L0 121.84 Z" class="st3"/>
				</g>
				<g id="shape17119-25" transform="translate(32.7151,-20.076)">
					<title>Sheet.17119</title>
					<path d="M4.87 121.84 L0 119.01 L0 124.71 L4.87 121.84 Z" class="st4"/>
				</g>
				<g id="shape17120-27" transform="translate(25.3784,-8.43724)">
					<title>Sheet.17120</title>
					<path d="M13.21 123.07 C10.3 122.61 10.2 120.51 10.2 117.14 L4.44 117.14 C4.44 120.47 4.44 122.61 1.43 123.07
								 A1.70079 1.70079 -180 0 0 -0 124.71 L14.67 124.71 A1.70079 1.70079 -180 0 0 13.21 123.07 Z"
							class="st6"/>
				</g>
				<g id="shape17121-31" transform="translate(0,-0.133395)">
					<title>Sheet.17121</title>
					<path d="M15.24 68.15 L21.81 68.15 L21.81 70.05 L15.24 70.05 L15.24 68.15 ZM25.04 68.15 L31.61 68.15 L31.61 70.05
								 L25.04 70.05 L25.04 68.15 ZM34.88 68.15 L41.45 68.15 L41.45 70.05 L34.88 70.05 L34.88 68.15 ZM44.72
								 68.15 L51.29 68.15 L51.29 70.05 L44.72 70.05 L44.72 68.15 ZM5.47 122.81 L12.04 122.81 L12.04 124.71
								 L5.47 124.71 L5.47 122.81 ZM15.27 122.81 L21.84 122.81 L21.84 124.71 L15.27 124.71 L15.27 122.81
								 ZM25.11 122.81 L31.68 122.81 L31.68 124.71 L25.11 124.71 L25.11 122.81 ZM34.95 122.81 L41.52 122.81
								 L41.52 124.71 L34.95 124.71 L34.95 122.81 ZM44.75 122.81 L51.32 122.81 L51.32 124.71 L44.75 124.71
								 L44.75 122.81 ZM54.79 73.32 L56.69 73.32 L56.69 79.89 L54.79 79.89 L54.79 73.32 ZM54.79 83.12 L56.69
								 83.12 L56.69 89.69 L54.79 89.69 L54.79 83.12 ZM54.79 92.96 L56.69 92.96 L56.69 99.53 L54.79 99.53
								 L54.79 92.96 ZM54.79 102.77 L56.69 102.77 L56.69 109.33 L54.79 109.33 L54.79 102.77 ZM54.79 112.6
								 L56.69 112.6 L56.69 119.17 L54.79 119.17 L54.79 112.6 ZM0 73.25 L1.9 73.25 L1.9 79.82 L0 79.82 L0
								 73.25 ZM0 83.09 L1.9 83.09 L1.9 89.66 L0 89.66 L0 83.09 ZM0 92.89 L1.9 92.89 L1.9 99.46 L0 99.46
								 L0 92.89 ZM0 102.73 L1.9 102.73 L1.9 109.3 L0 109.3 L0 102.73 ZM0 112.54 L1.9 112.54 L1.9 119.11
								 L0 119.11 L0 112.54 Z" class="st1"/>
				</g>
			</g>
		</g>
	</g>
</svg>
